X:313
T:Passepied,A. (p)1690.PLFD.313
M:3/2
L:1/8
Q:1/2=100
S:Playford, Dancing Master,8th Ed,1690.
R:.Passepied
O:England
N:A Fine tune, with 7 bar strains!.
H:1690.
Z:Chris Partington
K:C
G2c2cde2d3c|d2e2f2g2e2c2|cdef defga2gf|edefg2fed2B2|
BcdB edcBA2f2|f2e2fedcB3c|d2G2A2^F2G4:|
|:B3A GABcd2G2|G2AB cBcde2c2|c2de fefga2f2|fga2g2f2e4|
f4d3cB4|e4c3BA2dc|Bcded2B2c4:|
